Badges/Misc/warn-deprecated.svg

<svg width="97" height="32" viewBox="0 0 97 32" fill="none" xmlns="http://www.w3.org/2000/svg">
<g filter="url(#filter0_i_24_182)">
<rect width="97" height="32" rx="4" fill="#FFAE00"/>
<path d="M16.9219 10.0156L22.8516 19.9219C22.9922 20.151 23.0365 20.3932 22.9844 20.6484C22.9323 20.888 22.8073 21.0885 22.6094 21.25C22.4167 21.4167 22.1901 21.5 21.9297 21.5H10.0703C9.8099 21.5 9.58073 21.4167 9.38281 21.25C9.1901 21.0885 9.06771 20.888 9.01562 20.6484C8.96354 20.3932 9.00781 20.151 9.14844 19.9219L15.0781 10.0156C15.2135 9.79167 15.4036 9.63802 15.6484 9.55469C15.8828 9.47656 16.1172 9.47656 16.3516 9.55469C16.5964 9.63802 16.7865 9.79167 16.9219 10.0156ZM16.75 18.75C16.75 18.5417 16.6771 18.3646 16.5312 18.2188C16.3854 18.0729 16.2083 18 16 18C15.7917 18 15.6146 18.0729 15.4688 18.2188C15.3229 18.3646 15.25 18.5417 15.25 18.75C15.25 18.9583 15.3229 19.1354 15.4688 19.2812C15.6146 19.4271 15.7917 19.5 16 19.5C16.2083 19.5 16.3854 19.4271 16.5312 19.2812C16.6771 19.1354 16.75 18.9583 16.75 18.75ZM16.5 14C16.5 13.8594 16.4505 13.7422 16.3516 13.6484C16.2578 13.5495 16.1406 13.5 16 13.5C15.8594 13.5 15.7396 13.5495 15.6406 13.6484C15.5469 13.7422 15.5 13.8594 15.5 14V16.5C15.5 16.6406 15.5469 16.7604 15.6406 16.8594C15.7396 16.9531 15.8594 17 16 17C16.1406 17 16.2578 16.9531 16.3516 16.8594C16.4505 16.7604 16.5 16.6406 16.5 16.5V14Z" fill="white"/>
<path d="M31.355 12.3C33.555 12.3 35.084 13.466 35.084 16.15C35.084 18.834 33.555 20 31.355 20H28.814V12.3H31.355ZM30.31 18.548H31.421C32.664 18.548 33.544 17.8 33.544 16.15C33.544 14.5 32.664 13.752 31.421 13.752H30.31V18.548ZM38.7991 20.11C37.0281 20.11 35.8731 18.911 35.8731 17.129C35.8731 15.347 37.0281 14.126 38.6781 14.126C40.4601 14.126 41.3511 15.347 41.3511 17.052V17.547H37.2921C37.4131 18.449 37.9851 18.834 38.7991 18.834C39.3931 18.834 39.8441 18.647 40.2951 18.273L41.1421 19.285C40.5261 19.857 39.6461 20.11 38.7991 20.11ZM38.6781 15.314C37.9741 15.314 37.5121 15.677 37.3361 16.403H39.9541C39.8661 15.71 39.4041 15.314 38.6781 15.314ZM43.8625 22.09H42.4545V14.236H43.8625V15.05L44.0385 15.116C44.2915 14.599 44.7975 14.126 45.6555 14.126C47.0195 14.126 48.0755 15.105 48.0755 16.997C48.0755 18.889 47.0195 20.11 45.3255 20.11C44.7535 20.11 44.2695 19.956 43.8625 19.758V22.09ZM45.2155 18.812C46.0515 18.812 46.6455 18.152 46.6455 17.008C46.6455 15.908 46.0515 15.424 45.2705 15.424C44.6545 15.424 44.1595 15.721 43.8625 16.194V18.405C44.1485 18.614 44.6545 18.812 45.2155 18.812ZM50.6301 20H49.2221V14.236H50.6301V15.05L50.8061 15.116C51.1251 14.489 51.6531 14.126 52.3351 14.126C52.5001 14.126 52.6761 14.148 52.8301 14.181V15.6C52.6101 15.523 52.3351 15.468 51.9831 15.468C51.3781 15.468 50.8721 15.842 50.6301 16.348V20ZM56.094 20.11C54.323 20.11 53.168 18.911 53.168 17.129C53.168 15.347 54.323 14.126 55.973 14.126C57.755 14.126 58.646 15.347 58.646 17.052V17.547H54.587C54.708 18.449 55.28 18.834 56.094 18.834C56.688 18.834 57.139 18.647 57.59 18.273L58.437 19.285C57.821 19.857 56.941 20.11 56.094 20.11ZM55.973 15.314C55.269 15.314 54.807 15.677 54.631 16.403H57.249C57.161 15.71 56.699 15.314 55.973 15.314ZM62.3234 20.11C60.5854 20.11 59.4414 18.9 59.4414 17.118C59.4414 15.336 60.5854 14.126 62.3234 14.126C63.2254 14.126 64.0944 14.489 64.6004 15.138L63.6544 16.084C63.3354 15.699 62.8624 15.424 62.2904 15.424C61.4544 15.424 60.8714 16.04 60.8714 17.118C60.8714 18.196 61.4544 18.812 62.2904 18.812C62.8624 18.812 63.3354 18.537 63.6544 18.152L64.6004 19.098C64.0944 19.747 63.2254 20.11 62.3234 20.11ZM67.0363 20.11C66.0683 20.11 65.1993 19.516 65.1993 18.295C65.1993 17.195 65.9913 16.48 67.5423 16.48H68.8843V16.381C68.8843 15.6 68.4223 15.336 67.8173 15.336C67.1793 15.336 66.6733 15.611 66.0573 16.073L65.3863 15.028C66.0903 14.5 66.9043 14.126 67.8503 14.126C69.2693 14.126 70.2923 14.709 70.2923 16.337V20H68.8843V19.351L68.7083 19.285C68.3123 19.824 67.7953 20.11 67.0363 20.11ZM67.4983 18.9C68.1143 18.9 68.5983 18.559 68.8843 18.152V17.492H67.5203C66.9373 17.492 66.6073 17.734 66.6073 18.196C66.6073 18.625 66.9703 18.9 67.4983 18.9ZM74.2808 18.812C74.6108 18.812 74.8638 18.768 75.1608 18.691V19.934C74.8198 20.044 74.4788 20.11 74.0608 20.11C72.7628 20.11 72.0038 19.373 72.0038 17.965V15.446H71.0578V14.236H72.0038V12.74H73.4118V14.236H75.0398V15.446H73.4118V17.943C73.4118 18.526 73.7638 18.812 74.2808 18.812ZM78.5774 20.11C76.8064 20.11 75.6514 18.911 75.6514 17.129C75.6514 15.347 76.8064 14.126 78.4564 14.126C80.2384 14.126 81.1294 15.347 81.1294 17.052V17.547H77.0704C77.1914 18.449 77.7634 18.834 78.5774 18.834C79.1714 18.834 79.6224 18.647 80.0734 18.273L80.9204 19.285C80.3044 19.857 79.4244 20.11 78.5774 20.11ZM78.4564 15.314C77.7524 15.314 77.2904 15.677 77.1144 16.403H79.7324C79.6444 15.71 79.1824 15.314 78.4564 15.314ZM84.3338 20.11C82.9918 20.11 81.9248 19.087 81.9248 17.118C81.9248 15.182 83.0908 14.126 84.7518 14.126C85.2688 14.126 85.7968 14.258 86.1378 14.445V12.19H87.5458V20H86.1378V19.186L85.9618 19.12C85.6428 19.813 85.0598 20.11 84.3338 20.11ZM84.7408 18.812C85.2908 18.812 85.8628 18.57 86.1378 18.042V15.71C85.7858 15.501 85.3348 15.424 84.8948 15.424C84.0368 15.424 83.3548 15.952 83.3548 17.118C83.3548 18.174 83.8278 18.812 84.7408 18.812Z" fill="white"/>
</g>
<defs>
<filter id="filter0_i_24_182" x="0" y="-2" width="97" height="34" filterUnits="userSpaceOnUse" color-interpolation-filters="sRGB">
<feFlood flood-opacity="0" result="BackgroundImageFix"/>
<feBlend mode="normal" in="SourceGraphic" in2="BackgroundImageFix" result="shape"/>
<feColorMatrix in="SourceAlpha" type="matrix" values="0 0 0 0 0 0 0 0 0 0 0 0 0 0 0 0 0 0 127 0" result="hardAlpha"/>
<feOffset dy="-2"/>
<feGaussianBlur stdDeviation="1.65"/>
<feComposite in2="hardAlpha" operator="arithmetic" k2="-1" k3="1"/>
<feColorMatrix type="matrix" values="0 0 0 0 1 0 0 0 0 1 0 0 0 0 1 0 0 0 0.11 0"/>
<feBlend mode="normal" in2="shape" result="effect1_innerShadow_24_182"/>
</filter>
</defs>
</svg>

<svg xmlns="http://www.w3.org/2000/svg" width="97" height="32" fill="none">
  <g filter="url(#a)">
    <rect width="97" height="32" fill="#ffae00" rx="4"/>
    <path fill="#fff" d="m16.922 10.016 5.93 9.906q.21.343.132.726-.078.36-.375.602-.288.25-.68.25H10.07q-.39 0-.687-.25a1.06 1.06 0 0 1-.367-.602.97.97 0 0 1 .132-.726l5.93-9.906a1.04 1.04 0 0 1 .57-.461q.353-.117.704 0 .366.125.57.46m-.172 8.734a.72.72 0 0 0-.219-.531A.72.72 0 0 0 16 18a.72.72 0 0 0-.531.219.72.72 0 0 0-.219.531q0 .312.219.531A.72.72 0 0 0 16 19.5a.72.72 0 0 0 .531-.219.72.72 0 0 0 .219-.531M16.5 14q0-.21-.148-.352A.47.47 0 0 0 16 13.5a.49.49 0 0 0-.5.5v2.5q0 .21.14.36.15.14.36.14t.352-.14a.5.5 0 0 0 .148-.36zm14.855-1.7c2.2 0 3.729 1.166 3.729 3.85S33.555 20 31.355 20h-2.541v-7.7zm-1.045 6.248h1.111c1.243 0 2.123-.748 2.123-2.398s-.88-2.398-2.123-2.398H30.31zm8.49 1.562c-1.772 0-2.927-1.199-2.927-2.981s1.155-3.003 2.805-3.003c1.782 0 2.673 1.221 2.673 2.926v.495h-4.059c.121.902.693 1.287 1.507 1.287.594 0 1.045-.187 1.496-.561l.847 1.012c-.616.572-1.496.825-2.343.825m-.122-4.796c-.704 0-1.166.363-1.342 1.089h2.618c-.088-.693-.55-1.089-1.276-1.089m5.185 6.776h-1.408v-7.854h1.407v.814l.176.066c.254-.517.76-.99 1.618-.99 1.364 0 2.42.979 2.42 2.871s-1.056 3.113-2.75 3.113a3.3 3.3 0 0 1-1.464-.352zm1.352-3.278c.836 0 1.43-.66 1.43-1.804 0-1.1-.594-1.584-1.375-1.584-.616 0-1.11.297-1.408.77v2.211c.286.209.792.407 1.353.407M50.63 20h-1.408v-5.764h1.408v.814l.176.066c.32-.627.847-.99 1.53-.99.164 0 .34.022.494.055V15.6a2.5 2.5 0 0 0-.847-.132c-.605 0-1.11.374-1.353.88zm5.464.11c-1.771 0-2.926-1.199-2.926-2.981s1.155-3.003 2.805-3.003c1.782 0 2.673 1.221 2.673 2.926v.495h-4.059c.121.902.693 1.287 1.507 1.287.594 0 1.045-.187 1.496-.561l.847 1.012c-.616.572-1.496.825-2.343.825m-.121-4.796c-.704 0-1.166.363-1.342 1.089h2.618c-.088-.693-.55-1.089-1.276-1.089m6.35 4.796c-1.738 0-2.882-1.21-2.882-2.992s1.144-2.992 2.882-2.992c.902 0 1.771.363 2.277 1.012l-.946.946a1.76 1.76 0 0 0-1.364-.66c-.836 0-1.419.616-1.419 1.694s.583 1.694 1.42 1.694a1.76 1.76 0 0 0 1.363-.66l.946.946c-.506.649-1.375 1.012-2.277 1.012m4.713 0c-.968 0-1.837-.594-1.837-1.815 0-1.1.792-1.815 2.343-1.815h1.342v-.099c0-.781-.462-1.045-1.067-1.045-.638 0-1.144.275-1.76.737l-.67-1.045c.703-.528 1.517-.902 2.463-.902 1.42 0 2.442.583 2.442 2.211V20h-1.408v-.649l-.176-.066c-.396.539-.913.825-1.672.825m.462-1.21c.616 0 1.1-.341 1.386-.748v-.66H67.52c-.583 0-.913.242-.913.704 0 .429.363.704.891.704m6.783-.088c.33 0 .583-.044.88-.121v1.243c-.341.11-.682.176-1.1.176-1.298 0-2.057-.737-2.057-2.145v-2.519h-.946v-1.21h.946V12.74h1.408v1.496h1.628v1.21h-1.628v2.497c0 .583.352.869.869.869m4.296 1.298c-1.77 0-2.926-1.199-2.926-2.981s1.155-3.003 2.805-3.003c1.782 0 2.673 1.221 2.673 2.926v.495H77.07c.121.902.693 1.287 1.507 1.287.594 0 1.045-.187 1.496-.561l.847 1.012c-.616.572-1.496.825-2.343.825m-.12-4.796c-.705 0-1.167.363-1.343 1.089h2.618c-.088-.693-.55-1.089-1.276-1.089m5.877 4.796c-1.342 0-2.41-1.023-2.41-2.992 0-1.936 1.167-2.992 2.828-2.992.517 0 1.045.132 1.386.319V12.19h1.408V20h-1.408v-.814l-.176-.066c-.32.693-.902.99-1.628.99m.407-1.298c.55 0 1.122-.242 1.397-.77V15.71c-.352-.209-.803-.286-1.243-.286-.858 0-1.54.528-1.54 1.694 0 1.056.473 1.694 1.386 1.694"/>
  </g>
  <defs>
    <filter id="a" width="97" height="34" x="0" y="-2" color-interpolation-filters="sRGB" filterUnits="userSpaceOnUse">
      <feFlood flood-opacity="0" result="BackgroundImageFix"/>
      <feBlend in="SourceGraphic" in2="BackgroundImageFix" result="shape"/>
      <feColorMatrix in="SourceAlpha" result="hardAlpha" values="0 0 0 0 0 0 0 0 0 0 0 0 0 0 0 0 0 0 127 0"/>
      <feOffset dy="-2"/>
      <feGaussianBlur stdDeviation="1.65"/>
      <feComposite in2="hardAlpha" k2="-1" k3="1" operator="arithmetic"/>
      <feColorMatrix values="0 0 0 0 1 0 0 0 0 1 0 0 0 0 1 0 0 0 0.11 0"/>
      <feBlend in2="shape" result="effect1_innerShadow_24_182"/>
    </filter>
  </defs>
</svg>
